material/.icons/material/lan-check.svg

<svg xmlns="http://www.w3.org/2000/svg" viewBox="0 0 24 24"><path d="M4 1c-1.11 0-2 .89-2 2v4c0 1.11.89 2 2 2H1v2h12V9h-3c1.11 0 2-.89 2-2V3c0-1.11-.89-2-2-2H4m0 2h6v4H4V3m10 10c-1.11 0-2 .89-2 2v4c0 1.11.89 2 2 2h-3v2h12v-2h-3c1.11 0 2-.89 2-2v-4c0-1.11-.89-2-2-2h-6m0 2h6v4h-6v-4m-8.5 5.5l5-5L9 14l-3.5 3.5-2-2L2 17l3.5 3.5z"/></svg>

<?xml version="1.0" encoding="UTF-8"?><!DOCTYPE svg PUBLIC "-//W3C//DTD SVG 1.1//EN" "http://www.w3.org/Graphics/SVG/1.1/DTD/svg11.dtd"><svg xmlns="http://www.w3.org/2000/svg" xmlns:xlink="http://www.w3.org/1999/xlink" version="1.1" id="mdi-lan-check" width="24" height="24" viewBox="0 0 24 24"><path d="M4 1C2.89 1 2 1.89 2 3V7C2 8.11 2.89 9 4 9H1V11H13V9H10C11.11 9 12 8.11 12 7V3C12 1.89 11.11 1 10 1H4M4 3H10V7H4V3M14 13C12.89 13 12 13.89 12 15V19C12 20.11 12.89 21 14 21H11V23H23V21H20C21.11 21 22 20.11 22 19V15C22 13.89 21.11 13 20 13H14M14 15H20V19H14V15M5.5 20.5L10.5 15.5L9 14L5.5 17.5L3.5 15.5L2 17L5.5 20.5Z" /></svg>
